Origami/32x32/apps/rdm.svg

<svg width="32" height="32" version="1.1" viewBox="0 0 32 32" xmlns="http://www.w3.org/2000/svg">
 <path d="m16.000646 14.000001c-0.928613-1.71e-4 -1.857272 0.209224-2.544463 0.626446l-10.426031 6.329017c-1.3743839 0.834443-1.3731078 2.255245 0.00126 3.089689l10.424751 6.329017c1.374383 0.834441 3.714546 0.83444 5.088927 0l10.424775-6.329017c1.374381-0.834441 1.373087-2.255248-0.0013-3.089689l-10.423457-6.329017c-0.687191-0.417222-1.615849-0.626276-2.544462-0.626446z" style="opacity:.2"/>
 <path d="m16.000646 12.999997c-0.928613-1.71e-4 -1.857272 0.209224-2.544463 0.626446l-10.426031 6.329017c-1.3743839 0.834443-1.3731078 2.255245 0.00126 3.089689l10.424751 6.329017c1.374383 0.834441 3.714546 0.83444 5.088927 0l10.424775-6.329017c1.374381-0.834441 1.373087-2.255248-0.0013-3.089689l-10.423457-6.329017c-0.687191-0.417222-1.615849-0.626276-2.544462-0.626446z" style="fill:#af2d2c"/>
 <path d="m16.000645 9.0000041c-0.928613-1.707e-4 -1.857272 0.2092246-2.544463 0.6264465l-10.426032 6.3290184c-1.3743839 0.834442-1.3731078 2.255243 0.00126 3.089687l10.424752 6.329017c1.374383 0.834441 3.714545 0.834441 5.088926 0l10.424776-6.329017c1.37438-0.83444 1.373087-2.255248-0.0013-3.089687l-10.423457-6.3290184c-0.687191-0.4172219-1.615849-0.6262758-2.544462-0.6264465z" style="opacity:.2"/>
 <path d="m16.000645 8.0000005c-0.928613-1.707e-4 -1.857272 0.2092246-2.544463 0.6264465l-10.426032 6.329018c-1.3743839 0.834442-1.3731078 2.255243 0.00126 3.089687l10.424752 6.329017c1.374383 0.834441 3.714545 0.834441 5.088926 0l10.424776-6.329017c1.37438-0.83444 1.373087-2.255248-0.0013-3.089687l-10.423457-6.329018c-0.687191-0.4172219-1.615849-0.6262758-2.544462-0.6264465z" style="fill:#da3837"/>
 <path d="m16.000646 3.9999999c-0.928613-1.707e-4 -1.857272 0.2092247-2.544463 0.6264465l-10.426031 6.3290176c-1.3743839 0.834442-1.3731078 2.255245 0.00126 3.089689l10.424751 6.329016c1.374383 0.834442 3.714546 0.834441 5.088927 0l10.424775-6.329016c1.374381-0.834441 1.373087-2.255249-0.0013-3.089689l-10.423457-6.3290176c-0.687191-0.4172218-1.615849-0.6262758-2.544462-0.6264465z" style="opacity:.2"/>
 <path d="m16.000646 2.9999963c-0.928613-1.707e-4 -1.857272 0.2092247-2.544463 0.6264465l-10.426031 6.3290177c-1.3743839 0.8344425-1.3731078 2.2552445 0.00126 3.0896885l10.424751 6.329016c1.374383 0.834442 3.714546 0.834441 5.088927 0l10.424775-6.329016c1.374381-0.834441 1.373087-2.255249-0.0013-3.0896885l-10.423457-6.3290177c-0.687191-0.4172218-1.615849-0.6262758-2.544462-0.6264465z" style="fill:#e0504d"/>
 <polygon transform="matrix(.02066408 0 0 .02709895 1.1709921 .80624171)" points="572.44 289.03 678.96 250.62 647 191.66 746.72 230.66 840.74 199.88 815.33 260.85 911.2 296.75 787.57 309.58 759.89 376.17 715.19 301.86" style="opacity:.2"/>
 <polygon transform="matrix(.02066408 0 0 .02709895 1.1709921 -.19376192)" points="715.19 301.86 572.44 289.03 678.96 250.62 647 191.66 746.72 230.66 840.74 199.88 815.33 260.85 911.2 296.75 787.57 309.58 759.89 376.17" style="fill:#ffffff"/>
 <polygon transform="matrix(.01814816 0 0 .02731625 2.5305442 2.0691692)" points="521.79 524.11 852.4 473.38 752.51 619.81" style="opacity:.2"/>
 <polygon transform="matrix(.01814816 0 0 .02731625 2.5305442 1.0691656)" points="752.51 619.81 521.79 524.11 852.4 473.38" style="fill:#ffffff"/>
 <ellipse cx="9.5" cy="12" rx="3.5" ry="2" style="opacity:.2"/>
 <ellipse cx="9.5" cy="11" rx="3.5" ry="2" style="fill:#ffffff"/>
 <g transform="matrix(.69119668 0 0 .73021148 -.26547446 .10368004)">
  <path transform="matrix(.02808355 0 0 .04204144 2.8125203 -1.0576208)" d="m1046.891 477.818-206.066-77.243 206.066-85.628z" style="opacity:.25"/>
  <path transform="matrix(.02808355 0 0 .04204144 2.8125203 -1.0576208)" d="m1252.957 392.274-206.066 85.544v-162.871z" style="opacity:.4"/>
 </g>
 <path d="m16 2.9999959c-0.928613-1.707e-4 -1.855778 0.2097313-2.542969 0.6269531l-10.427734 6.328125c-0.8925581 0.541907-1.1948467 1.329621-0.9277344 2.044922 0.1438426-0.386021 0.4460396-0.752466 0.9277344-1.044922l10.427734-6.328125c0.687191-0.4172218 1.614356-0.6271238 2.542969-0.6269531s1.857731 0.2097313 2.544922 0.6269531l10.423828 6.328125c0.481696 0.292455 0.785435 0.658901 0.929688 1.044922 0.266355-0.715302-0.03713-1.503017-0.929688-2.044922l-10.423828-6.328125c-0.687191-0.4172218-1.616309-0.6267824-2.544922-0.6269531z" style="fill:#ffffff;opacity:.2"/>
</svg>

<svg xmlns="http://www.w3.org/2000/svg" width="32" height="32" version="1.1" viewBox="0 0 32 32">
 <path style="opacity:0.2" d="m 16.000646,14.000001 c -0.928613,-1.71e-4 -1.857272,0.209224 -2.544463,0.626446 L 3.030152,20.955464 c -1.3743839,0.834443 -1.3731078,2.255245 0.00126,3.089689 l 10.424751,6.329017 c 1.374383,0.834441 3.714546,0.83444 5.088927,0 l 10.424775,-6.329017 c 1.374381,-0.834441 1.373087,-2.255248 -0.0013,-3.089689 L 18.545108,14.626447 c -0.687191,-0.417222 -1.615849,-0.626276 -2.544462,-0.626446 z"/>
 <path style="fill:#af2d2c" d="m 16.000646,12.999997 c -0.928613,-1.71e-4 -1.857272,0.209224 -2.544463,0.626446 L 3.030152,19.95546 c -1.3743839,0.834443 -1.3731078,2.255245 0.00126,3.089689 l 10.424751,6.329017 c 1.374383,0.834441 3.714546,0.83444 5.088927,0 l 10.424775,-6.329017 c 1.374381,-0.834441 1.373087,-2.255248 -0.0013,-3.089689 L 18.545108,13.626443 c -0.687191,-0.417222 -1.615849,-0.626276 -2.544462,-0.626446 z"/>
 <path style="opacity:0.2" d="M 16.000645,9.0000041 C 15.072032,8.9998334 14.143373,9.2092287 13.456182,9.6264506 L 3.0301503,15.955469 c -1.3743839,0.834442 -1.3731078,2.255243 0.00126,3.089687 l 10.4247517,6.329017 c 1.374383,0.834441 3.714545,0.834441 5.088926,0 l 10.424776,-6.329017 c 1.37438,-0.83444 1.373087,-2.255248 -0.0013,-3.089687 L 18.545107,9.6264506 C 17.857916,9.2092287 16.929258,9.0001748 16.000645,9.0000041 Z"/>
 <path style="fill:#da3837" d="M 16.000645,8.0000005 C 15.072032,7.9998298 14.143373,8.2092251 13.456182,8.626447 L 3.0301503,14.955465 c -1.3743839,0.834442 -1.3731078,2.255243 0.00126,3.089687 l 10.4247517,6.329017 c 1.374383,0.834441 3.714545,0.834441 5.088926,0 l 10.424776,-6.329017 c 1.37438,-0.83444 1.373087,-2.255248 -0.0013,-3.089687 L 18.545107,8.626447 C 17.857916,8.2092251 16.929258,8.0001712 16.000645,8.0000005 Z"/>
 <path style="opacity:0.2" d="M 16.000646,3.9999999 C 15.072033,3.9998292 14.143374,4.2092246 13.456183,4.6264464 L 3.030152,10.955464 c -1.3743839,0.834442 -1.3731078,2.255245 0.00126,3.089689 l 10.424751,6.329016 c 1.374383,0.834442 3.714546,0.834441 5.088927,0 l 10.424775,-6.329016 c 1.374381,-0.834441 1.373087,-2.255249 -0.0013,-3.089689 L 18.545108,4.6264464 C 17.857917,4.2092246 16.929259,4.0001706 16.000646,3.9999999 Z"/>
 <path style="fill:#e0504d" d="M 16.000646,2.9999963 C 15.072033,2.9998256 14.143374,3.209221 13.456183,3.6264428 L 3.030152,9.9554605 C 1.6557681,10.789903 1.6570442,12.210705 3.031412,13.045149 l 10.424751,6.329016 c 1.374383,0.834442 3.714546,0.834441 5.088927,0 l 10.424775,-6.329016 c 1.374381,-0.834441 1.373087,-2.255249 -0.0013,-3.0896885 L 18.545108,3.6264428 C 17.857917,3.209221 16.929259,3.000167 16.000646,2.9999963 Z"/>
 <polygon style="opacity:0.2" points="572.44 289.03 678.96 250.62 647 191.66 746.72 230.66 840.74 199.88 815.33 260.85 911.2 296.75 787.57 309.58 759.89 376.17 715.19 301.86" transform="matrix(0.02066408,0,0,0.02709895,1.1709921,0.80624171)"/>
 <polygon style="fill:#ffffff" points="715.19 301.86 572.44 289.03 678.96 250.62 647 191.66 746.72 230.66 840.74 199.88 815.33 260.85 911.2 296.75 787.57 309.58 759.89 376.17" transform="matrix(0.02066408,0,0,0.02709895,1.1709921,-0.19376192)"/>
 <polygon style="opacity:0.2" points="521.79 524.11 852.4 473.38 752.51 619.81" transform="matrix(0.01814816,0,0,0.02731625,2.5305442,2.0691692)"/>
 <polygon style="fill:#ffffff" points="752.51 619.81 521.79 524.11 852.4 473.38" transform="matrix(0.01814816,0,0,0.02731625,2.5305442,1.0691656)"/>
 <ellipse style="opacity:0.2" cx="9.5" cy="12" rx="3.5" ry="2"/>
 <ellipse style="fill:#ffffff" cx="9.5" cy="11" rx="3.5" ry="2"/>
 <g transform="matrix(0.69119668,0,0,0.73021148,-0.26547446,0.10368004)">
  <path style="opacity:0.25" d="M 1046.891,477.818 840.825,400.575 1046.891,314.947 Z" transform="matrix(0.02808355,0,0,0.04204144,2.8125203,-1.0576208)"/>
  <path style="opacity:0.4" d="m 1252.957,392.274 -206.066,85.544 0,-162.871 z" transform="matrix(0.02808355,0,0,0.04204144,2.8125203,-1.0576208)"/>
 </g>
 <path style="opacity:0.2;fill:#ffffff" d="M 16,2.9999959 C 15.071387,2.9998252 14.144222,3.2097272 13.457031,3.626949 L 3.0292969,9.955074 C 2.1367388,10.496981 1.8344502,11.284695 2.1015625,11.999996 2.2454051,11.613975 2.5476021,11.24753 3.0292969,10.955074 L 13.457031,4.626949 C 14.144222,4.2097272 15.071387,3.9998252 16,3.9999959 c 0.928613,1.707e-4 1.857731,0.2097313 2.544922,0.6269531 l 10.423828,6.328125 c 0.481696,0.292455 0.785435,0.658901 0.929688,1.044922 0.266355,-0.715302 -0.03713,-1.503017 -0.929688,-2.044922 L 18.544922,3.626949 C 17.857731,3.2097272 16.928613,3.0001666 16,2.9999959 Z"/>
</svg>
